X:1
T:Title
%%score { 1 | 2 }
L:1/8
M:6/4
K:Ab
V:1 treble nm="Grand Piano"
V:2 bass 
V:1
 z6 z4[Q:1/4=144] [CE]2 | [CA]3 [CG] [CA]2 [DB]2 [Ec]2 [DB]2 | [CA]4 [DF]2 [CE]4 c2 | %3
 [Ge]3 [GB] [GB]2 [GB]2 [Ac]2 [Bd]2 |[M:5/4] [EAc]2- [EAc]2- [EAc]6 |[M:1/4] [A,CE]2 | %6
[M:6/4] [CEA]3 [B,EG] [A,EA]2 B2 c2 B2 | [CA]4 [DF]2 [CE]4 [Ec]2 | %8
 [=DB]3 [DB] [DB]2 [DB]2 [DA]2 [DF]2 |[M:5/4] E2- E2- E6 |[M:1/4] c2 |[M:6/4] e3 e e2 e2 B2 c2 | %12
 d6- d4 E2 | d3 d d2 d2 E2 A2 |[M:5/4] c2- c2- c6 |[M:1/4] [CE]2 | %16
[M:6/4] [CA]3 [CA] [CA]2 [Ec]2 [EB]2 [EA]2 |[M:7/4] [Fd]2 [Fd]2 [Fd]2 F6 GA | %18
[M:6/4] E3 c c2 d2 c2 B2 |[M:5/4] [CA]2- [CA]2- [CA]6 |] %20
V:2
 z6 z4 [A,,A,]2 | [A,,E,]3 [A,,E,] [A,,E,]2 [A,,E,]2 [A,,A,]2 [A,,A,]2 | %2
 [A,,A,]4 [A,,A,]2 [A,,A,]4 [A,A]2 | [E,B,]3 [E,E] [E,E]2 [E,E]2 [E,E]2 [E,E]2 | %4
[M:5/4] A,2- A,2- A,6 |[M:1/4] A,,2 |[M:6/4] A,,3 B,, C,2 [E,G,E]2 [A,E]2 [E,G,D]2 | %7
 [A,,A,]4 [A,,A,]2 [A,,A,]4 [A,,A,]2 | [B,,F,]3 [B,,F,] [B,,F,]2 [B,,F,]2 [B,,F,]2 [B,,A,]2 | %9
[M:5/4] [E,G,]2- [E,G,]2- [E,G,]6 |[M:1/4] [A,E]2 | %11
[M:6/4] [A,CE]3 [A,CE] [A,CE]2 [A,CE]2 [G,B,E]2 [A,E]2 | [E,G,E]6- [E,G,E]4 [E,G,]2 | %13
 [E,G,E]3 [E,G,E] [E,G,E]2 [E,G,E]2 [E,G,]2 [E,CE]2 |[M:5/4] [A,E]2- [A,E]2- [A,E]6 | %15
[M:1/4] [A,,A,]2 |[M:6/4] [A,,E,]3 [A,,E,] [A,,E,]2 [A,,A,]2 [B,,G,]2 [C,A,]2 | %17
[M:7/4] [D,A,]2 [D,A,]2 [D,A,]2 [D,A,D]6 [=D,F,_C][D,F,C] | %18
[M:6/4] [E,A,C]3 [E,A,E] [E,A,E]2 [E,G,F]2 [E,A,E]2 [E,G,D]2 | %19
[M:5/4] [A,,A,]2- [A,,A,]2- [A,,A,]6 |] %20

